priv/static/svgs/icons_new/travel-meal.svg

<svg width="32" height="32" viewBox="0 0 32 32" fill="none" xmlns="http://www.w3.org/2000/svg">
<path d="M8.32985 15.2185C8.24098 15.4799 8.38089 15.7639 8.64234 15.8528C8.9038 15.9416 9.18779 15.8017 9.27665 15.5403L8.32985 15.2185ZM13.5641 15.3526V15.8526V15.3526ZM22.623 13.5382L22.9845 13.1927L22.623 13.5382ZM18.9852 15.355L18.9842 15.855H18.9852V15.355ZM14.222 10.6068C14.2461 10.8819 14.4887 11.0853 14.7638 11.0611C15.0389 11.037 15.2423 10.7944 15.2181 10.5193L14.222 10.6068ZM15.5398 5.00327L15.5023 5.50186L15.5398 5.00327ZM16.5866 6.24134L16.089 6.19253C16.0867 6.21531 16.0861 6.2382 16.087 6.26107L16.5866 6.24134ZM21.4305 6.12958L21.5873 5.65481L21.4305 6.12958ZM22.1368 7.67139L22.5875 7.8879C22.5912 7.88031 22.5946 7.87263 22.5979 7.86487L22.1368 7.67139ZM19.9916 6.78123L20.4408 7.0008C20.445 6.99223 20.4489 6.98354 20.4526 6.97474L19.9916 6.78123ZM10.3656 25.4786C10.6006 25.6236 10.9087 25.5507 11.0537 25.3157C11.1988 25.0807 11.1258 24.7726 10.8908 24.6276L10.3656 25.4786ZM6.50242 17.0341V16.5341C6.23512 16.5341 6.0151 16.7444 6.00294 17.0114L6.50242 17.0341ZM25.4975 17.0341L25.997 17.0112C25.9847 16.7442 25.7647 16.5341 25.4975 16.5341V17.0341ZM21.3725 25.0531L21.3726 25.5531C21.4653 25.5531 21.5562 25.5273 21.635 25.4786L21.3725 25.0531ZM10.6266 27H10.1266C10.1266 27.2761 10.3505 27.5 10.6266 27.5V27ZM21.3733 27V27.5C21.6495 27.5 21.8733 27.2761 21.8733 27H21.3733ZM14.3459 6.29941L14.844 6.2557L14.3459 6.29941ZM14.3825 5.75012L13.9119 5.58108L14.3825 5.75012ZM19.0861 16.9781C19.0859 15.6745 18.62 14.4137 17.772 13.4207L17.0115 14.0702C17.7053 14.8826 18.0859 15.9132 18.0861 16.9782L19.0861 16.9781ZM17.772 13.4207C16.924 12.4278 15.7493 11.7673 14.4578 11.5562L14.2965 12.5431C15.3555 12.7162 16.3176 13.2576 17.0115 14.0702L17.772 13.4207ZM14.4578 11.5562C13.1663 11.3451 11.8413 11.5971 10.7189 12.2676L11.2317 13.1261C12.1513 12.5768 13.2375 12.37 14.2965 12.5431L14.4578 11.5562ZM10.7189 12.2676C9.59649 12.9381 8.74952 13.9837 8.32985 15.2185L9.27665 15.5403C9.61964 14.5311 10.3123 13.6753 11.2317 13.1261L10.7189 12.2676ZM15.6989 16.9781C15.6989 16.4135 15.4733 15.8725 15.0726 15.4741L14.3675 16.1832C14.58 16.3945 14.6989 16.6805 14.6989 16.9781H15.6989ZM15.0726 15.4741C14.672 15.0758 14.1293 14.8526 13.5641 14.8526V15.8526C13.866 15.8526 14.1549 15.9718 14.3675 16.1832L15.0726 15.4741ZM13.5641 14.8526C12.9988 14.8526 12.4561 15.0758 12.0555 15.4741L12.7606 16.1832C12.9732 15.9718 13.2622 15.8526 13.5641 15.8526V14.8526ZM12.0555 15.4741C11.6549 15.8725 11.4292 16.4135 11.4292 16.9781H12.4292C12.4292 16.6805 12.5481 16.3945 12.7606 16.1832L12.0555 15.4741ZM24.5047 16.9781C24.5047 15.5687 23.9602 14.2136 22.9845 13.1927L22.2615 13.8837C23.06 14.719 23.5047 15.8268 23.5047 16.9781L24.5047 16.9781ZM22.9845 13.1927C22.1966 12.3684 21.1762 11.8129 20.0685 11.5919L19.8728 12.5726C20.781 12.7537 21.6167 13.209 22.2615 13.8837L22.9845 13.1927ZM21.1175 16.9781C21.1175 16.4141 20.8922 15.8738 20.492 15.4758L19.7869 16.185C19.9989 16.3958 20.1175 16.6812 20.1175 16.9781H21.1175ZM20.492 15.4758C20.0919 15.078 19.5498 14.855 18.9852 14.855V15.855C19.2864 15.855 19.5747 15.974 19.7869 16.185L20.492 15.4758ZM18.9861 14.855C18.7376 14.8545 18.4908 14.8976 18.2572 14.9823L18.5982 15.9224C18.7218 15.8776 18.8525 15.8547 18.9842 15.855L18.9861 14.855ZM15.2181 10.5193L14.844 6.2557L13.8478 6.34312L14.222 10.6068L15.2181 10.5193ZM16.087 6.26107L16.361 13.1998L17.3603 13.1603L17.0862 6.2216L16.087 6.26107ZM15.5023 5.50186C15.8616 5.52885 16.1233 5.84296 16.089 6.19253L17.0842 6.29014C17.1738 5.37661 16.4907 4.57329 15.5772 4.50467L15.5023 5.50186ZM14.853 5.91916C14.9467 5.6584 15.2086 5.47979 15.5023 5.50186L15.5772 4.50467C14.8279 4.44838 14.1551 4.90406 13.9119 5.58108L14.853 5.91916ZM17.3278 13.3696L20.4408 7.0008L19.5423 6.56166L16.4294 12.9304L17.3278 13.3696ZM21.6861 7.45489L18.2083 14.6947L19.1097 15.1277L22.5875 7.8879L21.6861 7.45489ZM21.2737 6.60436C21.6406 6.72553 21.8224 7.12849 21.6758 7.47791L22.5979 7.86487C22.9719 6.97355 22.5036 5.95741 21.5873 5.65481L21.2737 6.60436ZM20.4526 6.97474C20.5852 6.65887 20.9426 6.49499 21.2737 6.60436L21.5873 5.65481C20.764 5.3829 19.8665 5.7873 19.5305 6.58772L20.4526 6.97474ZM10.8908 24.6276C8.84454 23.3647 7.87052 21.4843 7.40732 19.8929C7.17587 19.0977 7.07444 18.3819 7.03104 17.8661C7.00937 17.6085 7.00226 17.402 7.0005 17.2618C6.99961 17.1917 7.00006 17.1383 7.00068 17.1035C7.00099 17.0861 7.00135 17.0733 7.0016 17.0655C7.00173 17.0616 7.00183 17.0589 7.00188 17.0574C7.00191 17.0567 7.00193 17.0563 7.00193 17.0562C7.00193 17.0561 7.00193 17.0562 7.00193 17.0563C7.00193 17.0564 7.00192 17.0565 7.00192 17.0565C7.00191 17.0567 7.0019 17.0569 6.50242 17.0341C6.00294 17.0114 6.00293 17.0116 6.00292 17.0119C6.00291 17.012 6.0029 17.0122 6.00289 17.0125C6.00287 17.0129 6.00285 17.0134 6.00282 17.014C6.00277 17.0152 6.00271 17.0167 6.00264 17.0186C6.00249 17.0223 6.00231 17.0272 6.00211 17.0335C6.00171 17.0459 6.00124 17.0634 6.00084 17.0856C6.00005 17.1301 5.99956 17.1937 6.00057 17.2744C6.00261 17.4358 6.01069 17.6663 6.03456 17.9499C6.08221 18.5163 6.19319 19.2998 6.44717 20.1724C6.95482 21.9164 8.04371 24.0455 10.3656 25.4786L10.8908 24.6276ZM6.50242 17.5341H25.4975V16.5341H6.50242V17.5341ZM25.4975 17.0341C24.998 17.0571 24.998 17.0569 24.998 17.0568C24.998 17.0567 24.998 17.0566 24.998 17.0565C24.998 17.0564 24.998 17.0564 24.998 17.0564C24.998 17.0565 24.998 17.0569 24.9981 17.0576C24.9981 17.0591 24.9982 17.0618 24.9983 17.0657C24.9986 17.0736 24.999 17.0863 24.9993 17.1037C24.9999 17.1385 25.0004 17.1919 24.9995 17.262C24.9978 17.4022 24.9908 17.6087 24.9692 17.8662C24.926 18.3821 24.8249 19.0978 24.5936 19.893C24.1308 21.4843 23.157 23.3646 21.11 24.6276L21.635 25.4786C23.9578 24.0456 25.0466 21.9164 25.5538 20.1722C25.8076 19.2997 25.9183 18.5162 25.9657 17.9497C25.9895 17.6661 25.9975 17.4356 25.9995 17.2742C26.0004 17.1935 25.9999 17.1299 25.9991 17.0854C25.9987 17.0632 25.9982 17.0457 25.9978 17.0332C25.9976 17.027 25.9974 17.022 25.9973 17.0184C25.9972 17.0165 25.9972 17.015 25.9971 17.0138C25.9971 17.0132 25.9971 17.0127 25.997 17.0122C25.997 17.012 25.997 17.0117 25.997 17.0116C25.997 17.0114 25.997 17.0112 25.4975 17.0341ZM10.1266 25.0588V27H11.1266V25.0588H10.1266ZM21.8733 27V25.0588H20.8733V27H21.8733ZM21.3724 24.5531L15.2241 24.5539L15.2243 25.5539L21.3726 25.5531L21.3724 24.5531ZM12.6924 24.5539H10.5458V25.5539H12.6924V24.5539ZM10.6266 27.5H21.3733V26.5H10.6266V27.5ZM14.844 6.2557C14.8274 6.06676 14.8316 5.97878 14.853 5.91916L13.9119 5.58108C13.8079 5.87067 13.8319 6.16243 13.8478 6.34312L14.844 6.2557Z" fill="black"/>
</svg>

<svg width="32" height="32" viewBox="0 0 32 32" fill="none" xmlns="http://www.w3.org/2000/svg">
  <symbol id="item" viewBox="0 0 32 32"  fill="none">
    <path d="M8.33 15.219a.5.5 0 0 0 .947.321l-.947-.321Zm5.234.134v.5-.5Zm9.059-1.815.361-.345-.361.345Zm-3.638 1.817v.5-.5Zm-4.763-4.748a.5.5 0 1 0 .996-.088l-.996.088Zm1.318-5.604-.038.499.038-.499Zm1.047 1.238-.498-.048a.49.49 0 0 0-.002.068l.5-.02Zm4.843-.111.157-.475-.157.475Zm.707 1.541.45.217a.49.49 0 0 0 .01-.023l-.46-.194Zm-2.145-.89.449.22a.496.496 0 0 0 .012-.026l-.461-.194ZM10.366 25.48a.5.5 0 0 0 .525-.851l-.525.85Zm-3.864-8.445v-.5a.5.5 0 0 0-.5.477l.5.023Zm18.995 0 .5-.023a.5.5 0 0 0-.5-.477v.5Zm-4.125 8.02v.5a.5.5 0 0 0 .263-.075l-.263-.426ZM10.627 27h-.5a.5.5 0 0 0 .5.5V27Zm10.746 0v.5a.5.5 0 0 0 .5-.5h-.5ZM14.346 6.3l.498-.044-.498.043Zm.037-.55-.471-.169.47.17Zm4.703 11.228a5.479 5.479 0 0 0-1.314-3.557l-.76.65a4.479 4.479 0 0 1 1.074 2.907h1Zm-1.314-3.557a5.531 5.531 0 0 0-3.314-1.865l-.162.987a4.53 4.53 0 0 1 2.716 1.527l.76-.65Zm-3.314-1.865a5.547 5.547 0 0 0-3.74.712l.514.858a4.548 4.548 0 0 1 3.065-.583l.16-.987Zm-3.74.712a5.5 5.5 0 0 0-2.388 2.95l.947.322a4.5 4.5 0 0 1 1.955-2.414l-.513-.858Zm4.98 4.71a2.12 2.12 0 0 0-.625-1.504l-.706.71c.213.21.332.496.332.794h1Zm-.625-1.504a2.14 2.14 0 0 0-1.509-.621v1c.302 0 .59.119.803.33l.706-.709Zm-1.509-.621a2.14 2.14 0 0 0-1.508.621l.705.71a1.14 1.14 0 0 1 .803-.331v-1Zm-1.508.621c-.401.399-.627.94-.627 1.504h1c0-.298.12-.584.332-.795l-.705-.709Zm12.449 1.504c0-1.41-.545-2.764-1.52-3.785l-.723.69a4.478 4.478 0 0 1 1.243 3.095h1Zm-1.52-3.785a5.53 5.53 0 0 0-2.916-1.601l-.196.98a4.529 4.529 0 0 1 2.389 1.312l.723-.691Zm-1.867 3.785c0-.564-.226-1.104-.626-1.502l-.705.709c.212.21.33.496.33.793h1Zm-.626-1.502c-.4-.398-.942-.621-1.507-.621v1c.301 0 .59.119.802.33l.705-.71Zm-1.506-.621c-.248 0-.495.043-.729.127l.341.94c.124-.044.255-.067.386-.067l.002-1Zm-3.768-4.336-.374-4.263-.996.087.374 4.264.996-.088Zm.869-4.258.274 6.939 1-.04-.275-6.938-.999.04Zm-.585-.76c.36.028.621.342.587.692l.995.097a1.633 1.633 0 0 0-1.507-1.785l-.075.997Zm-.649.418a.639.639 0 0 1 .65-.417l.074-.997c-.75-.057-1.422.4-1.665 1.076l.941.338Zm2.475 7.45 3.113-6.368-.899-.44-3.113 6.37.899.439Zm4.358-5.914-3.478 7.24.902.433 3.477-7.24-.9-.433Zm-.412-.85a.654.654 0 0 1 .402.873l.922.387a1.654 1.654 0 0 0-1.01-2.21l-.314.95Zm-.821.37a.664.664 0 0 1 .82-.37l.314-.95a1.664 1.664 0 0 0-2.056.933l.922.387ZM10.89 24.628c-2.046-1.263-3.02-3.144-3.484-4.735a10.472 10.472 0 0 1-.376-2.027 8.557 8.557 0 0 1-.03-.8v-.009l-.499-.023a45.54 45.54 0 0 0-.5-.021v.001a.944.944 0 0 0-.001.072 9.558 9.558 0 0 0 .034.864c.047.566.158 1.35.412 2.222.508 1.744 1.597 3.873 3.919 5.307l.525-.851Zm-4.389-7.094h18.995v-1H6.502v1Zm18.995-.5-.499.023v.009l.001.038v.158a8.53 8.53 0 0 1-.03.604 10.457 10.457 0 0 1-.375 2.027c-.463 1.591-1.437 3.472-3.484 4.735l.525.85c2.323-1.432 3.412-3.562 3.919-5.306.254-.872.364-1.656.412-2.222a9.555 9.555 0 0 0 .032-.917v-.019l-.001-.002-.5.022Zm-15.37 8.025V27h1v-1.941h-1ZM21.873 27v-1.941h-1V27h1Zm-.5-2.447h-6.149v1h6.149v-1Zm-8.68 0h-2.147v1h2.146v-1ZM10.626 27.5h10.746v-1H10.627v1Zm4.217-21.244c-.017-.19-.012-.277.009-.337l-.941-.338c-.104.29-.08.581-.064.762l.996-.087Z" fill="currentColor"/>
  </symbol>
</svg>
